X:1
T:Title
%%score { ( 1 4 ) | ( 2 3 ) }
L:1/8
M:4/4
K:Eb
V:1 treble nm="Grand Piano"
V:4 treble 
V:2 bass 
V:3 bass 
V:1
 z4 z2[Q:1/4=100] E2 | G3 A G2 E2 | G6 G2 | [GB]3 [Ac] [GB]2 [EG]2 | [GB]6 [GB]2 | %5
 [Ad]3 [Ac] [GB][FA][EG][DF] | G2 A2 B2 c2 | B3 G [A,DF]3 [G,E] | [G,E]6 z2 | %9
 [EAc]3 [Ece] [EBd]2 [EAc]2 | [EG]2 z2 z4 | [B,FA]3 [B,DF] [B,EG]2 [B,FA]2 | B6 z2 | %13
 [GB]3 [GB] [Ac][Ac][Ad][Ad] | [Ge]2 [Ad]2 [Be]2 [EAc]2 | [EGB]3 [EG] [A,DF]3 [G,E] | %16
[M:3/4] [G,E]6 |] %17
V:2
 z4 z2 [E,G,]2 | [E,B,E]3 [E,CE] [E,B,E]2 [E,G,]2 | [E,B,E]6 [E,B,E]2 | %3
 [E,E]3 [E,E] [E,E]2 [E,B,]2 | [E,E]6 [E,B,]2 | [B,,B,]3 [B,,B,] [B,,B,][B,,B,][B,,B,][B,,B,] | %6
 [B,E]4[K:treble] z4 | [B,EG]3[K:bass] [B,E] B,,3 E, | E,6 z2 | A,3 A, A,2 A,2 | E,2 E,2 E,2 z2 | %11
 B,,3 A, G,2 F,2 | E,2 B,,2 E,2 [E,B,]2 | [E,E]3 [E,E] [A,E][A,E][F,B,][F,B,] | B,6 z2 | %15
 B,3 B, B,,3 E, |[M:3/4] E,6 |] %17
V:3
 x8 | x8 | x8 | x8 | x8 | x8 | E,2 F,2[K:treble] [G,E]2 [A,EA]2 | x3[K:bass] x5 | x8 | x8 | x8 | %11
 x8 | x8 | x8 | E,2 F,2 G,2 A,2 | x8 |[M:3/4] x6 |] %17
V:4
 x8 | x8 | x8 | x8 | x8 | x8 | x8 | x8 | x8 | x8 | B2- [B,GB-]2 [G,EB]2 z2 | x8 | %12
 [B,G]2 [A,F]2 [G,E]2 [EG][FA] | x8 | x8 | x8 |[M:3/4] x6 |] %17

